ci/cil-happy.svg

<svg xmlns="http://www.w3.org/2000/svg" viewBox="0 0 512 512" height="1em" width="1em">
  <path fill="var(--ci-primary-color, currentColor)" d="M256 16C123.452 16 16 123.452 16 256s107.452 240 240 240 240-107.452 240-240S388.548 16 256 16Zm147.078 387.078a207.253 207.253 0 1 1 44.589-66.125 207.332 207.332 0 0 1-44.589 66.125Z" class="ci-primary"/>
  <path fill="var(--ci-primary-color, currentColor)" class="ci-primary" d="M152 200h40v40h-40zm168 0h40v40h-40zm18.289 107.2A83.6 83.6 0 0 1 260.3 360h-8.6a83.6 83.6 0 0 1-77.992-52.8l-1.279-3.2h-34.461L144 319.081A116 116 0 0 0 251.7 392h8.6A116 116 0 0 0 368 319.081L374.032 304h-34.464Z"/>
</svg>

<svg xmlns="http://www.w3.org/2000/svg" viewBox="0 0 512 512" height="1em" width="1em">
  <path fill="var(--ci-primary-color, currentColor)" d="M256,16C123.452,16,16,123.452,16,256S123.452,496,256,496,496,388.548,496,256,388.548,16,256,16ZM403.078,403.078a207.253,207.253,0,1,1,44.589-66.125A207.332,207.332,0,0,1,403.078,403.078Z" class="ci-primary"/>
  <rect width="40" height="40" x="152" y="200" fill="var(--ci-primary-color, currentColor)" class="ci-primary"/>
  <rect width="40" height="40" x="320" y="200" fill="var(--ci-primary-color, currentColor)" class="ci-primary"/>
  <path fill="var(--ci-primary-color, currentColor)" d="M338.289,307.2A83.6,83.6,0,0,1,260.3,360H251.7a83.6,83.6,0,0,1-77.992-52.8l-1.279-3.2H137.968L144,319.081A116,116,0,0,0,251.7,392H260.3A116,116,0,0,0,368,319.081L374.032,304H339.568Z" class="ci-primary"/>
</svg>
